svgs/regular/file-heart.svg

<svg xmlns="http://www.w3.org/2000/svg" viewBox="0 0 384 512"><!--! Font Awesome Pro 6.0.0-alpha3 by @fontawesome - https://fontawesome.com License - https://fontawesome.com/license (Commercial License) --><path d="M365.3 93.38l-74.63-74.64C278.6 6.742 262.3 0 245.4 0H64C28.65 0 0 28.65 0 64l.0065 384c0 35.34 28.65 64 64 64H320c35.2 0 64-28.8 64-64V138.6C384 121.7 377.3 105.4 365.3 93.38zM336 448c0 8.836-7.164 16-16 16H64.02c-8.838 0-16-7.164-16-16L48 64.13c0-8.836 7.164-16 16-16h160L224 128c0 17.67 14.33 32 32 32h79.1V448zM199.3 264.5l-7.391 7.664l-7.389-7.664c-18.74-19.37-49.27-22.55-69.83-5.031C91.11 279.6 89.83 315.6 110.9 337.5l72.62 74.86c4.713 4.816 12.21 4.816 16.92 0l72.62-74.86c21.1-21.89 19.81-57.9-3.859-78.04C248.8 241.1 218.1 245.1 199.3 264.5z"/></svg>

<svg xmlns="http://www.w3.org/2000/svg" viewBox="0 0 384 512"><!-- Font Awesome Pro 6.0.0-alpha2 by @fontawesome - https://fontawesome.com License - https://fontawesome.com/license (Commercial License) --><path d="M365.256 93.383L290.627 18.746C278.625 6.742 262.348 0 245.373 0H64C28.654 0 0 28.652 0 64L0.02 448C0.02 483.344 28.674 512 64.02 512H320C355.199 512 384 483.199 384 448V138.641C384 121.664 377.258 105.383 365.256 93.383ZM336.002 448C336.002 456.836 328.838 464 320.002 464H64.018C55.18 464 48.018 456.836 48.018 448L48 64.125C48 55.289 55.164 48.125 64 48.125H224.008V128C224.008 145.672 238.334 160 256.008 160H336.002V448ZM199.287 264.516L191.896 272.18L184.508 264.516C165.764 245.145 135.24 241.969 114.674 259.484C91.113 279.621 89.828 315.633 110.924 337.523L183.543 412.387C188.256 417.203 195.752 417.203 200.465 412.387L273.084 337.523C294.184 315.633 292.898 279.621 269.225 259.484C248.771 241.969 218.141 245.145 199.287 264.516Z"/></svg>
